X:395
T: Streams of Poulaphouca
S: Darley & McCall Collection
Z: B.Black
L: 1/8
M: 4/4
R: reel
K: D
d2 ed AFDF|AFDF ABAF|dAFD ABdB|AFDF GAGE|
d2 ed AFDF|AFDF ABAF|dAFD ABdB|AFDF ED D2 :|
AFDF AF D2|GECE GE C2|AFDF AFDF|GECE FD D2|
(3AGF DF AF D2|(3GED CE GE C2|(3AGF DF (3AGF DF|\
(3GED CE FD D2 :|
